src/img/HomePage/Chopsticks/chopstickRight.svg

<svg xmlns="http://www.w3.org/2000/svg" width="453" height="746" fill="none"><path fill-rule="evenodd" clip-rule="evenodd" d="M450.413 741.201c-3.933 5.162-12.755 5.13-17.251-.063-2.182-2.521-16.059-25.22-39.183-64.097-3.45-5.8-10.829-18.14-16.396-27.422a21690.549 21690.549 0 0 1-18.312-30.588 12386.924 12386.924 0 0 0-15.164-25.314 98300.886 98300.886 0 0 1-26.749-44.614s-10.614-17.411-23.046-38.953c-10.212-16.962-22.461-37.373-27.22-45.356-43.914-73.648-68.296-113.463-68.296-113.463s-17.636-30.379-64.917-109.358a77072.99 77072.99 0 0 1-27.752-46.407 104844.06 104844.06 0 0 0-35.962-60.12C-2.874 13.45.58 19.466.777 14.576c.24-5.967 1.56-7.992 7.42-11.388 5.49-3.18 10.438-3.457 14.524-.815 1.666 1.077 12.066 17.655 27.661 44.088 26.826 45.47 26.24 44.477 57.993 98.245a318591.59 318591.59 0 0 1 98.266 166.59c16.231 27.557 44.917 76.206 55.135 93.505l29.853 50.539c10.328 17.484 21.377 36.237 24.553 41.674 0 0 62.699 105.807 68.448 115.834 3.124 5.451 44.712 76.051 59.735 101.408 5.797 11.063 6.049 12.102 7.644 16.284 1.595 4.181-.135 8.743-1.596 10.661Zm-12.293-.069c4.017 1.716 5.434 1.433 8.921-1.785 4.765-4.399 3.953-7.368-7.161-26.143-5.264-8.894-22.713-38.47-38.773-65.725a90845.213 90845.213 0 0 0-46.964-79.604 50448.797 50448.797 0 0 1-47.837-81.083 44037.503 44037.503 0 0 0-19.256-32.69 29396.23 29396.23 0 0 1-21.663-36.805 8507.514 8507.514 0 0 0-16.945-28.709c-4.291-7.224-30.033-50.854-57.205-96.955-27.171-46.101-52.078-88.328-55.348-93.838-3.27-5.51-13.423-22.71-22.56-38.222-9.139-15.511-16.873-28.213-17.186-28.226-.314-.013-5.198 1.204-10.853 2.703-7.132 1.89-10.077 3.113-9.61 3.987.681 1.278 31.798 53.419 52.05 87.22a44459.369 44459.369 0 0 1 49.93 83.592c4.225 7.101 13.379 22.404 20.342 34.007 14.256 23.755 51.226 85.581 63.869 106.809 4.584 7.695 11.811 19.798 16.061 26.894a88434.336 88434.336 0 0 1 61.259 102.523c5.521 9.266 15.243 25.515 21.606 36.11a33786.731 33786.731 0 0 1 28.915 48.285c44.032 73.67 45.83 76.553 48.408 77.655Z" fill="#201B19"/><path d="M447.041 739.347c-3.487 3.218-4.904 3.501-8.921 1.785-2.578-1.102-4.376-3.985-48.408-77.655a33786.731 33786.731 0 0 0-28.915-48.285 14683.312 14683.312 0 0 1-21.606-36.11 88434.336 88434.336 0 0 0-61.259-102.523c-4.25-7.096-11.477-19.199-16.061-26.894-12.643-21.228-49.613-83.054-63.869-106.809a13408.773 13408.773 0 0 1-20.342-34.007 44459.369 44459.369 0 0 0-49.93-83.592c-20.252-33.801-51.369-85.942-52.05-87.22-.467-.874 2.478-2.097 9.61-3.987 5.654-1.499 10.539-2.716 10.853-2.703.313.013 8.047 12.715 17.186 28.226 9.137 15.512 19.29 32.712 22.56 38.222 3.27 5.51 28.177 47.737 55.348 93.838 27.172 46.101 52.914 89.731 57.205 96.955a8507.514 8507.514 0 0 1 16.945 28.709 29396.23 29396.23 0 0 0 21.663 36.805c6.884 11.677 15.55 26.387 19.256 32.69a50448.797 50448.797 0 0 0 47.837 81.083c9.769 16.528 30.903 52.35 46.964 79.604a60422.865 60422.865 0 0 0 38.773 65.725c11.114 18.775 11.926 21.744 7.161 26.143Z" fill="#FAF5E5"/></svg>

<?xml version="1.0" encoding="UTF-8"?> <svg xmlns="http://www.w3.org/2000/svg" width="453" height="746" viewBox="0 0 453 746" fill="none"> <path fill-rule="evenodd" clip-rule="evenodd" d="M450.413 741.201C446.48 746.363 437.658 746.331 433.162 741.138C430.98 738.617 417.103 715.918 393.979 677.041C390.529 671.241 383.15 658.901 377.583 649.619C372.015 640.337 363.774 626.572 359.271 619.031C354.767 611.49 347.944 600.099 344.107 593.717C340.27 587.335 317.358 549.103 317.358 549.103C317.358 549.103 306.744 531.692 294.312 510.15C284.1 493.188 271.851 472.777 267.092 464.794C223.178 391.146 198.796 351.331 198.796 351.331C198.796 351.331 181.16 320.952 133.879 241.973C127.801 231.821 115.312 210.938 106.127 195.566C96.9409 180.193 80.7581 153.14 70.1655 135.446C-2.87398 13.4498 0.579659 19.4663 0.776784 14.5769C1.01737 8.60949 2.33762 6.58354 8.19739 3.18846C13.6864 0.00795454 18.6346 -0.269103 22.7212 2.37316C24.3866 3.45003 34.7874 20.0282 50.3822 46.4612C77.2076 91.9308 76.6212 90.9376 108.375 144.706C127.865 177.709 190.62 284.097 206.641 311.296C222.872 338.853 251.558 387.502 261.776 404.801C267.867 415.114 281.301 437.857 291.629 455.34C301.957 472.824 313.006 491.577 316.182 497.014C316.182 497.014 378.881 602.821 384.63 612.848C387.754 618.299 429.342 688.899 444.365 714.256C450.162 725.319 450.414 726.358 452.009 730.54C453.604 734.721 451.874 739.283 450.413 741.201ZM438.12 741.132C442.137 742.848 443.554 742.565 447.041 739.347C451.806 734.948 450.994 731.979 439.88 713.204C434.616 704.31 417.167 674.734 401.107 647.479C385.046 620.225 363.912 584.403 354.143 567.875C335.293 535.981 317.391 505.638 306.306 486.792C302.6 480.489 293.934 465.779 287.05 454.102C280.165 442.425 270.417 425.863 265.387 417.297C260.357 408.732 252.731 395.812 248.442 388.588C244.151 381.364 218.409 337.734 191.237 291.633C164.066 245.532 139.159 203.305 135.889 197.795C132.619 192.285 122.466 175.085 113.329 159.573C104.19 144.062 96.4562 131.36 96.143 131.347C95.8287 131.334 90.9445 132.551 85.2898 134.05C78.1584 135.94 75.2133 137.163 75.68 138.037C76.361 139.315 107.478 191.456 127.73 225.257C140.848 247.149 166.864 290.706 177.66 308.849C181.885 315.95 191.039 331.253 198.002 342.856C212.258 366.611 249.228 428.437 261.871 449.665C266.455 457.36 273.682 469.463 277.932 476.559C291.189 498.694 328.68 561.438 339.191 579.082C344.712 588.348 354.434 604.597 360.797 615.192C367.159 625.786 380.171 647.514 389.712 663.477C433.744 737.147 435.542 740.03 438.12 741.132Z" fill="#201B19"></path> <path d="M447.041 739.347C443.554 742.565 442.137 742.848 438.12 741.132C435.542 740.03 433.744 737.147 389.712 663.477C380.171 647.514 367.159 625.786 360.797 615.192C354.434 604.597 344.712 588.348 339.191 579.082C328.68 561.438 291.189 498.694 277.932 476.559C273.682 469.463 266.455 457.36 261.871 449.665C249.228 428.437 212.258 366.611 198.002 342.856C191.039 331.253 181.885 315.95 177.66 308.849C166.864 290.706 140.848 247.149 127.73 225.257C107.478 191.456 76.361 139.315 75.68 138.037C75.2133 137.163 78.1584 135.94 85.2898 134.05C90.9445 132.551 95.8287 131.334 96.143 131.347C96.4562 131.36 104.19 144.062 113.329 159.573C122.466 175.085 132.619 192.285 135.889 197.795C139.159 203.305 164.066 245.532 191.237 291.633C218.409 337.734 244.151 381.364 248.442 388.588C252.731 395.812 260.357 408.732 265.387 417.297C270.417 425.863 280.165 442.425 287.05 454.102C293.934 465.779 302.6 480.489 306.306 486.792C317.391 505.638 335.293 535.981 354.143 567.875C363.912 584.403 385.046 620.225 401.107 647.479C417.167 674.734 434.616 704.31 439.88 713.204C450.994 731.979 451.806 734.948 447.041 739.347Z" fill="#FAF5E5"></path> </svg>
